X: 071552
T: Gossoon that Beat His Father
T: An Gas\'ur a thug Leadradh d\'a Athair
S: B.Breathnach: "Ceol Rince na hEireann" II/247
Z: B.Black
L: 1/8
M: 4/4
R: reel
K: Ador
gf||eA (3AAA eAdA|BG (3GGG Bcdg|eA (3AAA eAdA|Beed BA A2|
eA (3AAA eAdA|BG (3GGG Bc d2|eged BAGA|Beed BA A2 ||
abag edef|g2 bg dgbg|abag ef/e/ d2|Beed BA A2 :|
